X:1
T:Title
%%score [ ( 1 2 ) ( 3 4 ) ] { ( 5 6 ) | ( 7 8 ) }
L:1/8
Q:1/4=120
M:4/4
K:G
V:1 treble nm="Midi_74"
V:2 treble 
V:3 bass nm="Midi_74"
V:4 bass 
V:5 treble nm="Org."
V:6 treble 
V:7 bass 
V:8 bass 
V:1
 B8 |"^Double Counterpoint." B4 B4 | B8 || (G6 F2) | E4 D4 | c4 A4 | B8 || d8 | d4 d4 | d8 || B8 | %11
 c4 B4 |"^William Henry Havergal\n(1793-1870)" A4 F4 | G8 |] %14
V:2
 B,8 | B,4 B,4 | B,8 || D8 | C4 D4 | E4 D4 | D8 || D8 | D4 D4 | D8 || G8 | G4 F4 | E4 C4 | D8 |] %14
V:3
 B,8 | B,4 B,4 | B,8 || G,8 | G,4 G,4 | C4 C4 | B,8 || D8 | D4 D4 | D8 || D8 | C4 D4 | C4 C4 | %13
 B,8 |] %14
V:4
 B,,8 | B,,4 B,,4 | B,,8 || B,,8 | C,4 B,,4 | A,,4 F,,4 | G,,8 || D,8 | D,4 D,4 | D,8 || %10
 (G,6 F,2) | E,4 D,4 | C4 A,4 | G,8 |] %14
V:5
 B8 | B4 B4 | B8 || G6 F2 | E4 D4 | c4 A4 | B8 || d8 | d4 d4 | d8 || [GB]8 | c4 B4 | A4 F4 | %13
 [B,DG]8 |] %14
V:6
 x8 | x8 | x8 || D8 | C4 D4 | [CE]4 [CD]4 | [B,D]8 || x8 | x8 | x8 || D8 | [CG]4 [DF]4 | E4 [CD]4 | %13
 x8 |] %14
V:7
 B,8 | B,4 B,4 | B,8 || G,8 | x8 | x8 | x8 || D8 | D4 D4 | D8 || x8 | x8 | x8 | x8 |] %14
V:8
 B,,8 | B,,4 B,,4 | B,,8 || B,,8 | C,4 B,,4 | A,,4 F,,4 | G,,8 || D,8 | D,4 D,4 | D,8 || G,6 F,2 | %11
 E,4 D,4 | C4 A,4 | G,8 |] %14

